build/images/icons/filter.svg

<svg width="13" height="13" viewBox="0 0 13 13" xmlns="http://www.w3.org/2000/svg">
  <path d="M0.559921 9.78843e-07H12.4399C12.6496 -0.000385682 12.8417 0.113808 12.9375 0.295666C13.0346 0.479974 13.0175 0.701916 12.8935 0.870242L8.54115 6.85173C8.5397 6.85379 8.53811 6.85573 8.53666 6.85779C8.37852 7.06607 8.29291 7.31843 8.29251 7.57762V12.4543C8.29344 12.5986 8.23531 12.7375 8.13107 12.8399C8.0267 12.9423 7.88481 13 7.73685 13C7.66167 12.9999 7.58716 12.9853 7.51767 12.9571L5.07199 12.0474C4.85294 11.9821 4.70749 11.7803 4.70749 11.5375V7.57762C4.70709 7.31843 4.62148 7.06607 4.46347 6.85779C4.46202 6.85573 4.46043 6.85379 4.45898 6.85173L0.106508 0.870113C-0.0175457 0.701916 -0.0345888 0.480103 0.0625143 0.295795C0.158164 0.113808 0.350389 -0.000385682 0.559921 9.78843e-07Z"/>
</svg>

<svg width="13" height="13" xmlns="http://www.w3.org/2000/svg"><path d="M.56 0h11.88a.56.56 0 01.498.296.54.54 0 01-.045.574L8.541 6.852l-.004.006a1.19 1.19 0 00-.244.72v4.876a.536.536 0 01-.162.386.563.563 0 01-.613.117l-2.446-.91a.518.518 0 01-.365-.51v-3.96c0-.259-.086-.51-.244-.72l-.004-.005L.107.87A.54.54 0 01.063.296.56.56 0 01.56 0z"/></svg>
